X:286
T: DIE REISE NACH JUETLAND
N: E1429
O: Europa, Mitteleuropa, Deutschland, Hessen, Lahn - Gegend
R: Staende -, Soldaten - Lied, Liebe, Abschied
M: 3/4
L: 1/8
K: Bb
D2 | F2D2F2 | Fdd2
B2 | B3cd2 | c4
cd | e3cfe | d3c
B2 | c2B2A2 | f4
gf | e3cfe | d3c
B2 | c2B2A2 | B4

